src/icons/outline/variable.svg

<svg width="24" height="24" viewBox="0 0 24 24" fill="none" xmlns="http://www.w3.org/2000/svg">
<path d="M4.87104 4C3.67341 6.40992 3 9.12632 3 12C3 14.8737 3.67341 17.5901 4.87104 20M19.0001 20C20.1977 17.5901 20.8711 14.8737 20.8711 12C20.8711 9.12632 20.1977 6.40992 19.0001 4M9 9H10.2457C10.6922 9 11.0846 9.29598 11.2072 9.72528L12.7928 15.2747C12.9154 15.704 13.3078 16 13.7543 16H15M16 9H15.9199C15.336 9 14.7813 9.25513 14.4014 9.69842L9.59864 15.3016C9.21868 15.7449 8.66398 16 8.08013 16H8" stroke="#374151" stroke-width="2" stroke-linecap="round" stroke-linejoin="round"/>
</svg>

<svg xmlns="http://www.w3.org/2000/svg" fill="none" viewBox="0 0 24 24" stroke="currentColor">
  <path stroke-linecap="round" stroke-linejoin="round" stroke-width="2" d="M4.871 4A17.926 17.926 0 003 12c0 2.874.673 5.59 1.871 8m14.13 0a17.926 17.926 0 001.87-8c0-2.874-.673-5.59-1.87-8M9 9h1.246a1 1 0 01.961.725l1.586 5.55a1 1 0 00.961.725H15m1-7h-.08a2 2 0 00-1.519.698L9.6 15.302A2 2 0 018.08 16H8"/>
</svg>
